X: 9891
T: Derry, The
R: hornpipe
M: 4/4
K: Dmajor
|:~F2 Ad fdAF|~G2 Bd gdBG|~F2 Ad fdAF|~E2 cd ecAG|
~F2 Ad fdAF|~G2 Bd g2 .ag|(3.f.g.f df eAce|1 d3 cd BAG:|2 d3 cd efg||
|:.a2 fd Adfa|.g2 ec A2 (3.e.f.g|.a2 fd Aggf|(3.e.f.e (3.d.cB A2 (3.e.f.g|
a2 fd Adfa|gfef gbag|(3.f.g.f df eAce|1 d3 cd efg:|2 d3 cd BAF||
|:~D2 AD BDAD|dcdf ecAF|~D2 AD BDAD|(3.E.F.G (3.F.G.A GBAF|
~D2 AD BDAD|dcdf ecAg|fAdf eAce|1 d3 cd BAF:|2 d3 cd efg||
|:~a3 b afdf|~g3 a gece|~a3 b afdf|e2 (3.d.cB A2 (3.e.f.g|
~a3 b afdf|gfef g2 ag|(3.f.g.f df eAce|1 d3 cd efg:|2 d3 cd EFG||
|:.A2 .Ad (3..g.f.e dA|BGBd gfed|cAcd edcd|(3.g.f.e (3.d.cB A2 FG|
AFAd (3.g.f.e dA|BGBd g2 ag|(3.f.g.f df eAce|d3 cd EFG:|

